pages/Absolute/img/icon_calc.svg

<svg width="28" height="28" viewBox="0 0 28 28" fill="none" xmlns="http://www.w3.org/2000/svg">
<path d="M14.3527 14.816L27.213 14.816C27.6502 14.816 28 14.4662 28 14.029C28 13.5918 27.6502 13.242 27.213 13.242L14.3527 13.242C13.9854 11.4173 12.3706 10.0356 10.4351 10.0356C8.49969 10.0356 6.88487 11.4173 6.5176 13.242L0.792843 13.242C0.355615 13.242 0.00583442 13.5918 0.0058344 14.029C0.00583439 14.4662 0.355615 14.816 0.792843 14.816L6.5176 14.816C6.88487 16.6407 8.49969 18.0223 10.4351 18.0223C12.3648 18.0223 13.9854 16.6465 14.3527 14.816ZM8.01583 14.029C8.01583 12.694 9.10015 11.6097 10.4351 11.6097C11.7701 11.6097 12.8545 12.694 12.8545 14.029C12.8545 15.364 11.7701 16.4483 10.4351 16.4483C9.10015 16.4483 8.01583 15.364 8.01583 14.029Z" fill="white"/>
<path d="M20.9519 5.17976L27.213 5.17976C27.6502 5.17976 28 4.82998 28 4.39275C28 3.95553 27.6502 3.60574 27.213 3.60574L20.9519 3.60574C20.5846 1.78105 18.9698 0.399414 17.0344 0.399414C15.0989 0.399413 13.4841 1.78105 13.1168 3.60574L0.792839 3.60574C0.355612 3.60574 0.00583061 3.95552 0.00583059 4.39275C0.00583057 4.82998 0.355612 5.17976 0.792839 5.17976L13.1226 5.17976C13.4899 7.00445 15.1047 8.38609 17.0402 8.38609C18.9756 8.38609 20.5846 7.00445 20.9519 5.17976ZM14.615 4.39275C14.615 3.05775 15.6994 1.97343 17.0344 1.97343C18.3694 1.97343 19.4537 3.05775 19.4537 4.39275C19.4537 5.72775 18.3694 6.81207 17.0344 6.81207C15.6994 6.81207 14.615 5.72192 14.615 4.39275Z" fill="white"/>
<path d="M20.9519 24.3946L27.213 24.3946C27.6502 24.3946 28 24.0448 28 23.6076C28 23.1704 27.6502 22.8206 27.213 22.8206L20.9519 22.8206C20.5846 20.9959 18.9698 19.6143 17.0344 19.6143C15.0989 19.6143 13.4841 20.9959 13.1168 22.8206L0.787006 22.8206C0.349779 22.8206 -2.06279e-06 23.1704 -2.0819e-06 23.6076C-2.10101e-06 24.0448 0.349779 24.3946 0.787006 24.3946L13.1226 24.3946C13.4899 26.2193 15.1047 27.6009 17.0402 27.6009C18.9756 27.6009 20.5846 26.2251 20.9519 24.3946ZM14.615 23.6076C14.615 22.2726 15.6994 21.1883 17.0344 21.1883C18.3694 21.1883 19.4537 22.2726 19.4537 23.6076C19.4537 24.9426 18.3694 26.0269 17.0344 26.0269C15.6994 26.0269 14.615 24.9426 14.615 23.6076Z" fill="white"/>
</svg>

<svg width="28" height="28" fill="none" xmlns="http://www.w3.org/2000/svg">
  <path d="M14.353 14.816h12.86c.437 0 .787-.35.787-.787a.784.784 0 00-.787-.787h-12.86a4.002 4.002 0 00-3.918-3.206 4.002 4.002 0 00-3.917 3.206H.793a.784.784 0 00-.787.787c0 .437.35.787.787.787h5.725a4.002 4.002 0 003.917 3.206c1.93 0 3.55-1.375 3.918-3.206zm-6.337-.787a2.42 2.42 0 012.42-2.42 2.42 2.42 0 012.418 2.42 2.42 2.42 0 01-2.419 2.42 2.42 2.42 0 01-2.42-2.42zM20.952 5.18h6.261c.437 0 .787-.35.787-.787a.784.784 0 00-.787-.787h-6.261A4.002 4.002 0 0017.034.399a4.002 4.002 0 00-3.917 3.207H.793a.784.784 0 00-.787.787c0 .437.35.787.787.787h12.33a4.002 4.002 0 003.917 3.206 3.996 3.996 0 003.912-3.206zm-6.337-.787a2.42 2.42 0 012.42-2.42 2.42 2.42 0 012.419 2.42 2.42 2.42 0 01-2.42 2.42 2.425 2.425 0 01-2.419-2.42zM20.952 24.395h6.261c.437 0 .787-.35.787-.787a.784.784 0 00-.787-.787h-6.261a4.002 4.002 0 00-3.918-3.207 4.002 4.002 0 00-3.917 3.207H.787a.784.784 0 00-.787.787c0 .437.35.787.787.787h12.336A4.002 4.002 0 0017.04 27.6a3.99 3.99 0 003.912-3.206zm-6.337-.787a2.42 2.42 0 012.42-2.42 2.42 2.42 0 012.419 2.42 2.42 2.42 0 01-2.42 2.419 2.42 2.42 0 01-2.419-2.42z" fill="#fff"/>
</svg>
